src/hide.svg

<svg viewBox="0 0 16 16" fill="none" xmlns="http://www.w3.org/2000/svg"><path d="M2.7 3.24001L3.7 4.42001C2.58147 5.25574 1.68242 6.35038 1.08 7.61001L0.910004 8.00001L1.08 8.39001C1.16 8.58001 3.11 13 8 13C8.85361 13.0015 9.7005 12.8491 10.5 12.55L11.82 14.12L12.58 13.48L3.47 2.60001L2.7 3.24001ZM6.13 7.33001L8.34 10C8.22691 10.0103 8.1131 10.0103 8 10C7.46957 10 6.96086 9.78929 6.58579 9.41422C6.21072 9.03915 6 8.53044 6 8.00001C6.00164 7.77057 6.04572 7.54341 6.13 7.33001ZM5.43 6.50001C5.15687 6.95332 5.00852 7.47083 5 8.00001C5 8.79566 5.31607 9.55872 5.87868 10.1213C6.44129 10.6839 7.20435 11 8 11C8.34173 10.9941 8.67993 10.9298 9 10.81L9.77 11.73C9.19584 11.9037 8.59984 11.9946 8 12C3.71 12 2 8.00001 2 8.00001C2.53988 6.88991 3.33906 5.92609 4.33 5.19001L5.43 6.50001Z" fill="#111111"/><path d="M10.56 9.55001C10.8783 9.01523 11.0224 8.39471 10.9723 7.7744C10.9222 7.1541 10.6805 6.56472 10.2806 6.0879C9.88068 5.61108 9.34238 5.27044 8.74027 5.11314C8.13815 4.95585 7.50203 4.9897 6.92 5.21001L7.61 6.00001C7.73958 5.98522 7.87042 5.98522 8 6.00001C8.53044 6.00001 9.03914 6.21072 9.41422 6.58579C9.78929 6.96087 10 7.46957 10 8.00001C10 8.24677 9.95251 8.49123 9.86 8.72001L10.56 9.55001Z" fill="#111111"/><path d="M14.92 7.61001C14.84 7.42001 12.89 3.00001 8 3.00001C7.13014 2.99876 6.26689 3.1511 5.45 3.45001L6.14 4.28001C6.74257 4.09442 7.36951 4.00004 8 4.00001C12.29 4.00001 14 8.00001 14 8.00001C13.4542 9.12629 12.6404 10.1015 11.63 10.84L12.28 11.61C13.4131 10.7718 14.3202 9.66539 14.92 8.39001L15.09 8.00001L14.92 7.61001Z" fill="#111111"/></svg>

<svg viewBox="0 0 16 16" fill="none" xmlns="http://www.w3.org/2000/svg"><path d="m2.7 3.24 1 1.18a8.63 8.63 0 0 0-2.62 3.19L.91 8l.17.39C1.16 8.58 3.11 13 8 13a7.1 7.1 0 0 0 2.5-.45l1.32 1.57.76-.64L3.47 2.6l-.77.64Zm3.43 4.09L8.34 10c-.113.01-.227.01-.34 0a2 2 0 0 1-2-2 1.86 1.86 0 0 1 .13-.67Zm-.7-.83A3 3 0 0 0 5 8a3 3 0 0 0 3 3 3 3 0 0 0 1-.19l.77.92A6.309 6.309 0 0 1 8 12c-4.29 0-6-4-6-4a7.69 7.69 0 0 1 2.33-2.81l1.1 1.31Zm5.13 3.05a3 3 0 0 0-3.64-4.34l.69.79c.13-.015.26-.015.39 0a2 2 0 0 1 2 2c0 .247-.047.491-.14.72l.7.83Z" fill="#111111"/><path d="M14.92 7.61C14.84 7.42 12.89 3 8 3a7.39 7.39 0 0 0-2.55.45l.69.83A6.32 6.32 0 0 1 8 4c4.29 0 6 4 6 4a7.65 7.65 0 0 1-2.37 2.84l.65.77a8.51 8.51 0 0 0 2.64-3.22l.17-.39-.17-.39Z" fill="#111111"/></svg>
